img/trainers/map.svg

<svg preserveAspectRatio="none" width="25" height="25" viewBox="0 0 25 25" fill="none" xmlns="http://www.w3.org/2000/svg">
<g id="map" clip-path="url(#clip0_260_670)">
<g id="Group">
<g id="Group_2">
<path id="Vector" d="M24.1699 22.2803V6.70123C24.1818 6.44571 23.9843 6.22897 23.7288 6.2171C23.6744 6.21456 23.6199 6.22168 23.5679 6.23812V6.26127L21.4839 6.91426C21.7021 6.33016 21.8316 5.71665 21.8683 5.09423C21.8683 2.28077 19.5875 0 16.774 0C13.9606 0 11.6798 2.28077 11.6798 5.09423C11.7123 5.68754 11.8325 6.27279 12.0364 6.8309L8.59086 5.59902C8.55086 5.5941 8.51045 5.5941 8.47045 5.59902H8.4334C8.37788 5.60001 8.32295 5.61101 8.27131 5.63144L1.12549 8.41011C0.960683 8.47281 0.845774 8.62361 0.829102 8.79913V16.246V24.3967C0.829854 24.6525 1.03779 24.8592 1.2936 24.8585C1.35016 24.8583 1.4062 24.8478 1.45893 24.8274L8.44266 22.1229L16.4082 24.9756C16.5043 25.0081 16.6084 25.0081 16.7046 24.9756L23.8458 22.7434C24.0464 22.6806 24.1796 22.4904 24.1699 22.2803ZM16.774 0.926224C19.076 0.926224 20.9421 2.79228 20.9421 5.09423C20.9421 6.905 18.2236 11.9066 16.774 14.3565C15.3245 11.8881 12.606 6.88184 12.606 5.09423C12.606 2.79228 14.4721 0.926224 16.774 0.926224ZM23.2576 21.9608L17.0241 23.9105V20.3769C17.0241 20.1212 16.8168 19.9138 16.561 19.9138C16.3053 19.9138 16.0979 20.1212 16.0979 20.3769V23.8781L8.90114 21.3032V18.3392C8.90114 18.0835 8.69378 17.8761 8.43803 17.8761C8.18228 17.8761 7.97492 18.0835 7.97492 18.3392V21.3032L1.75533 23.7252V16.5655L4.0431 15.6393C4.28791 15.5652 4.42627 15.3067 4.35217 15.0618C4.27807 14.817 4.01954 14.6787 3.77473 14.7528C3.74914 14.7605 3.72425 14.7705 3.70034 14.7825L1.75527 15.5652V9.11868L7.97486 6.71049V8.09983C7.97486 8.35558 8.18222 8.56294 8.43797 8.56294C8.69373 8.56294 8.90108 8.35558 8.90108 8.09983V6.69197L12.4532 7.96553C13.5923 10.5687 14.9027 13.0936 16.3757 15.5235C16.5083 15.7422 16.7931 15.8119 17.0119 15.6793C17.0755 15.6407 17.129 15.5872 17.1676 15.5235C18.6334 13.1079 19.9391 10.5985 21.0763 8.01184L23.2437 7.33106L23.2576 14.9215L20.9096 15.4911C20.6538 15.5218 20.4714 15.754 20.502 16.0098C20.5327 16.2655 20.765 16.448 21.0207 16.4173C21.0577 16.4218 21.0949 16.4218 21.1319 16.4173L23.2576 15.8986V21.9608H23.2576Z" fill="#2D383F"/>
</g>
</g>
<g id="Group_3">
<g id="Group_4">
<path id="Vector_2" d="M16.7561 2.40332C15.2701 2.40332 14.0654 3.60799 14.0654 5.094C14.0654 6.58001 15.2701 7.78468 16.7561 7.78468C18.2411 7.78213 19.4442 6.57897 19.4468 5.094C19.4468 3.60799 18.2421 2.40332 16.7561 2.40332ZM16.7561 6.85846C15.7899 6.84584 15.0126 6.06028 15.0102 5.094H14.9917C14.9917 4.1195 15.7816 3.32954 16.7561 3.32954C17.7306 3.32954 18.5206 4.1195 18.5206 5.094C18.5206 6.0685 17.7306 6.85846 16.7561 6.85846Z" fill="#2D383F"/>
</g>
</g>
<g id="Group_5">
<g id="Group_6">
<path id="Vector_3" d="M10.6981 13.9672V13.9811L8.45661 13.0132C8.34251 12.9656 8.21411 12.9656 8.10001 13.0132L6.20589 13.7774C5.96802 13.8733 5.85294 14.1439 5.94886 14.3817C6.04478 14.6196 6.31536 14.7347 6.55322 14.6387L8.26673 13.9487L10.3276 14.8194C10.3861 14.8443 10.4492 14.8569 10.5128 14.8564C10.7686 14.8585 10.9776 14.6529 10.9797 14.3971C10.9812 14.2101 10.8701 14.0405 10.6981 13.9672Z" fill="#2D383F"/>
</g>
</g>
<g id="Group_7">
<g id="Group_8">
<path id="Vector_4" d="M18.27 16.6161C18.201 16.393 17.9766 16.2562 17.7467 16.2969L17.7513 16.2599L16.6028 16.5377L14.6578 15.6949C14.4224 15.5926 14.1487 15.7004 14.0465 15.9357C13.9442 16.171 14.052 16.4447 14.2873 16.547L16.3713 17.4732C16.4298 17.4982 16.4929 17.5108 16.5565 17.5103H16.6677L17.9644 17.1954C18.2087 17.1198 18.3455 16.8604 18.27 16.6161Z" fill="#2D383F"/>
</g>
</g>
</g>
<defs>
<clipPath id="clip0_260_670">
<rect width="25" height="25" fill="white"/>
</clipPath>
</defs>
</svg>

<svg preserveAspectRatio="none" width="25" height="25" fill="none" xmlns="http://www.w3.org/2000/svg"><g clip-path="url(#a)"><path d="M24.17 22.28V6.701a.463.463 0 0 0-.602-.463v.023l-2.084.653a6.253 6.253 0 0 0 .384-1.82 5.094 5.094 0 0 0-10.188 0 6.02 6.02 0 0 0 .356 1.737L8.591 5.599a.493.493 0 0 0-.12 0h-.038a.463.463 0 0 0-.162.032l-7.146 2.78a.463.463 0 0 0-.296.388V24.396a.463.463 0 0 0 .63.431l6.984-2.704 7.965 2.853c.096.032.2.032.297 0l7.14-2.233a.463.463 0 0 0 .325-.463ZM16.774.926a4.168 4.168 0 0 1 4.168 4.168c0 1.811-2.718 6.813-4.168 9.262-1.45-2.468-4.168-7.474-4.168-9.262A4.168 4.168 0 0 1 16.774.926Zm6.484 21.035-6.234 1.95v-3.534a.463.463 0 0 0-.926 0v3.501L8.9 21.303V18.34a.463.463 0 0 0-.926 0v2.964l-6.22 2.422v-7.16l2.288-.926a.463.463 0 1 0-.343-.856l-1.945.782V9.12l6.22-2.409V8.1a.463.463 0 0 0 .926 0V6.692l3.552 1.274a64.32 64.32 0 0 0 3.923 7.558.463.463 0 0 0 .792 0 64.587 64.587 0 0 0 3.908-7.512l2.168-.68.014 7.59-2.348.57a.467.467 0 0 0 .11.925.46.46 0 0 0 .112 0l2.126-.518v6.062Z" fill="#2D383F"/><path d="M16.756 2.403a2.69 2.69 0 1 0 0 5.382 2.69 2.69 0 0 0 0-5.382Zm0 4.455a1.769 1.769 0 0 1-1.746-1.764h-.018a1.764 1.764 0 1 1 1.764 1.764ZM10.698 13.967v.014l-2.241-.968a.463.463 0 0 0-.357 0l-1.894.764a.464.464 0 1 0 .347.862l1.714-.69 2.06.87a.464.464 0 0 0 .186.037.463.463 0 0 0 .185-.889ZM18.27 16.616a.463.463 0 0 0-.523-.32l.004-.036-1.148.278-1.945-.843a.465.465 0 1 0-.37.852l2.083.926a.462.462 0 0 0 .186.037h.11l1.297-.315a.463.463 0 0 0 .306-.579Z" fill="#2D383F"/></g><defs><clipPath id="a"><path fill="#fff" d="M0 0h25v25H0z"/></clipPath></defs></svg>
